src/images/Union_icon.svg

<svg width="24" height="24" viewBox="0 0 18 19" fill="none" xmlns="http://www.w3.org/2000/svg"><path fill-rule="evenodd" clip-rule="evenodd" d="M12 0H6v2H0v2h18V2h-6V0zM2 6v11a2 2 0 002 2h10a2 2 0 002-2V6h-2v11H4V6H2zm4 0v9h2V6H6zm4 0v9h2V6h-2z" fill="#B6BCBF"/></svg>

<svg width="24" height="24" viewBox="0 0 18 19" fill="none" xmlns="http://www.w3.org/2000/svg">
<path fill-rule="evenodd" clip-rule="evenodd" d="M12 0H6V2H0V4H18V2H12V0ZM2 6V17C2 18.1046 2.89543 19 4 19H14C15.1046 19 16 18.1046 16 17V6H14V17H4V6H2ZM6 6L6 15H8L8 6H6ZM10 6V15H12V6H10Z" fill="#B6BCBF"/>
</svg>
